svgs/duotone/sd-card.svg

<svg xmlns="http://www.w3.org/2000/svg" viewBox="0 0 384 512"><!-- Font Awesome Pro 5.15.3 by @fontawesome - https://fontawesome.com License - https://fontawesome.com/license (Commercial License) --><defs><style>.fa-secondary{opacity:.4}</style></defs><path d="M112 160h48V64h-48zm80 0h48V64h-48zm80-96v96h48V64z" class="fa-secondary"/><path d="M320 0H128L0 128v320a64.06 64.06 0 0 0 64 64h256a64.06 64.06 0 0 0 64-64V64a64.06 64.06 0 0 0-64-64zM160 160h-48V64h48zm80 0h-48V64h48zm80 0h-48V64h48z" class="fa-primary"/></svg>

<svg xmlns="http://www.w3.org/2000/svg" viewBox="0 0 384 512"><!--! Font Awesome Pro 6.0.0 by @fontawesome - https://fontawesome.com License - https://fontawesome.com/license (Commercial License) Copyright 2022 Fonticons, Inc. --><defs><style>.fa-secondary{opacity:.4}</style></defs><path class="fa-primary" d="M112 160H160V64H112V160zM192 160h48V64H192V160zM272 64v96H320V64H272z"/><path class="fa-secondary" d="M320 0H128L0 128v320c0 35.25 28.75 64 64 64h256c35.25 0 64-28.75 64-64V64C384 28.75 355.3 0 320 0zM160 160H112V64H160V160zM240 160H192V64h48V160zM320 160h-48V64H320V160z"/></svg>
